icons/general-compare-filled.svg

<svg viewBox="0 0 24 24"><path fill="currentColor" fill-rule="evenodd" d="M11 2h-7a2 2 0 0 0-2 2v12a2 2 0 0 0 2 2h6.6v-10.5a3 3 0 0 1 2.4-2.8v-.7a2 2 0 0 0-2-2Zm-3.8 5.3a1 1 0 0 0-1.4 1.4l.3.3h-2.1a1 1 0 0 0 0 2h2l-.2.3a1 1 0 1 0 1.4 1.4l2-2a1 1 0 0 0 0-1.4z" clip-rule="evenodd"/><path fill="currentColor" fill-rule="evenodd" d="M13 22a2 2 0 0 1-.6-.1v-14.4q.1-1 1.1-1.1h7.7q.8.6.8 1.6v12a2 2 0 0 1-2 2zm4.7-9.3a1 1 0 0 0-1.4-1.4l-2 2a1 1 0 0 0 0 1.4l2 2a1 1 0 0 0 1.4-1.4l-.3-.3h2.1a1 1 0 1 0 0-2h-2z" clip-rule="evenodd"/></svg>

<svg viewBox="0 0 24 24"><path fill="currentColor" fill-rule="evenodd" d="M11 2H4a2 2 0 0 0-2 2v12a2 2 0 0 0 2 2h6.6V7.5A3 3 0 0 1 13 4.7V4a2 2 0 0 0-2-2M7.2 7.3a1 1 0 0 0-1.4 1.4L6 9H4a1 1 0 0 0 0 2h2l-.2.3a1 1 0 1 0 1.4 1.4l2-2a1 1 0 0 0 0-1.4z" clip-rule="evenodd"/><path fill="currentColor" fill-rule="evenodd" d="m13 22-.6-.1V7.5q.1-1 1.1-1.1h7.7Q22 7 22 8v12a2 2 0 0 1-2 2zm4.7-9.3a1 1 0 0 0-1.4-1.4l-2 2a1 1 0 0 0 0 1.4l2 2a1 1 0 0 0 1.4-1.4l-.3-.3h2.1a1 1 0 1 0 0-2h-2z" clip-rule="evenodd"/></svg>
